X:1
T:Welcome Yule
T:Welcome Yule
T:Air from Deuteromelia, 1609
T:From Sloane Manuscript, Reign of Henry VI
T:Public Domain Courtesy of the Cyber Hymnal™
T:Public Domain Courtesy of the Cyber Hymnal™
C:Air from Deuteromelia, 1609
Z:Public Domain
Z:Courtesy of the Cyber Hymnal™
%%score ( 1 2 ) ( 3 4 ) ( 5 6 )
L:1/8
Q:1/4=100
M:4/4
K:C
V:1 treble 
V:2 treble 
V:3 treble 
V:4 treble 
V:5 bass 
V:6 bass 
V:1
!p!!p!"^Moderato" C2 A,2 B,2 D2 |!ff!"^cresc." E2 C2 D2 F2 x2 |!mf! .G>.E(FG AFGA) | %3
w: ~ ~ ~ ~|~ ~ ~ ~|~ ~ ~ * * * * *|
w: ~ ~ ~ ~|~ ~ ~ ~|~ ~ ~ * * * * *|
w: ~ ~ ~ ~|~ ~ ~ ~|~ ~ ~ * * * * *|
w: ~ ~ ~ ~|~ ~ ~ ~|~ ~ ~ * * * * *|
w: ~ ~ ~ ~|~ ~ ~ ~|~ ~ ~ * * * * *|
!f! [DB]2 G2 [CA]2 B2 | ([EG-c]>[DG-B][EG-c]>[FGd] [EGc]4) |:!p! B2 G2 A2 B2 | (c>B) (c>d) c4 | %7
w: ~ ~ ~ ~|~ * * * *|~ ~ 1.~Wel- come|be * Thou, * Hea-|
w: ~ ~ ~ ~|~ * * * *|~ ~ 2.~Wel- come|be * ye, * Stephen|
w: ~ ~ ~ ~|~ * * * *|~ ~ 3.~Wel- come|be * ye, * good|
w: ~ ~ ~ ~|~ * * * *|~ ~ 4.~Wel- come|be * ye, * Can-|
w: ~ ~ ~ ~|~ * * * *|~ ~ 5.~Welcome be|ye, * that * are|
 (B>c) d2 d2 (dc) | (B>A) (G>A) ^F4 |!mf! A>_B cc dc c2 | =B>c dd ed d2 |!f! (c3 B A2) B2 | %12
w: ven * King, Wel- come *|born * in * one|morn- ing, Wel- come for whom we|shall sing, Wel- come for whom we|shall * * sing,|
w: and * John, Wel- come *|Inno- * cents * ev-|ery one, Wel- come Thom- as Mar-|tyr one, Wel- come Thom- as Mar-|tyr * * one,|
w: New * Year, Wel- come *|Twelfth * Day, * both|in fere, Wel- come saint- es lef|and dear, Wel- come saint- es lef|and * * dear,|
w: dle- * mas, Wel- come *|be * ye, * Queen|of Bliss, Wel- come both to more|and less, Wel- come both to more|and * * less,|
w: here, * Wel- come all *|that * make * good|cheer, Wel- come all, an- o- ther|year, Wel- come all, an- o- ther|year, * * Wel-|
 (c>Bc>d c4) | z8 | z8"^Play 5 times" :| %15
w: Wel- * * * *|||
w: Wel- * * * *|||
w: Wel- * * * *|||
w: Wel- * * * *|||
w: come * * * *|||
V:2
 x8 | x10 | x8 | x2 ED x GF x | x8 |: x8 | x8 | x8 | x8 | x8 | x8 | x8 | x8 | x8 | x8 :| %15
V:3
 ([DB]2 G2) ([CA]2 B2) | ([Ec]>[DB]) ([Ec]>[Fd]) c4 (GG) | ([DGB]>c) [DGd]2 [D^FAd]2 ([Gd][Ac]) | %3
 (B>A) (G>A [D^F]4) |!mf! ([C=FA]>[G_B] [Ac])([Ac] [Bd][Ac] [Ac]2) |: %5
 ([DG=B]>[Ac][Bd][Bd]) ([ce][Bd] [Bd]2) |!f! c3 B [FA]2 [FB]2 | %7
 ([EGc]>[DB][Ec]>[Fd] [Ec]2!ff! [Gceg]2) | c'3 b [cfa]2 [dfgb]2 | %9
 [cegc'] z/ ([DB]<[Ec][Fd]/ !fermata![Ee]4)"^Play 5 times" | x8 | x8 | x8 | x8 | x8 :| %15
V:4
 x2 (ED x G)F x | x4 ([E-G]2 E2) x2 | x8 | G2 D2 x4 | x8 |: x8 | G4 x4 | x8 | [ce]4 x4 | x8 | x8 | %11
 x8 | x8 | x8 | x8 :| %15
V:5
 z .C,.F,.E, .D,.C,.B,,.A,, | .G,,.B,.A,.G, .F,.E,.D,.C, x2 | .B,,.G,(A,B, CA,B,C) | %3
 ([G,,G,]4- [G,,G,][F,,F,][E,,E,][D,,D,]) | [C,,C,]2 [G,,G,]2 [C,C]4 |: G,8 | C,2 G,2 C4 | %7
 G,4 [D,A,]2 D2 | (D>C) (B,>C [D,A,]2) x2 |!mf! [=F,,C,=F,]2 [F,C]2 !>![F,F]4 | %10
 [G,,D,G,]2 [G,D]2 !>![G,G]4 |!f! C6 [D,G,D]2 | !>![C,G,C]6!ff! ([C,C][B,,B,]) | %13
 [A,,A,]2 [G,,G,]2 [F,,F,]2"^rall." [D,,D,]2 | [C,,C,]4 !fermata![C,G,]4"^Play 5 times" :| %15
V:6
 x8 | x10 | x8 | x8 | x8 |: G,4 E,D,C,B,, | x8 | G,2 B,,2 (E,^F,) x2 | G,2 G,2 (D,E,) x2 | x8 | %10
 x8 | [E,G,]4 F,2 x2 | x8 | x8 | x8 :| %15

